tenants/donaldduck/icons/pregnancy.svg

<svg fill="none" height="24" viewBox="0 0 24 24" width="24" xmlns="http://www.w3.org/2000/svg"><path d="m10.3 6.86667c.5802 0 1.1473-.17204 1.6297-.49436s.8583-.78044 1.0803-1.31643c.2221-.536.2802-1.1258.167-1.69481s-.3926-1.09168-.8028-1.50192c-.4103-.41023-.9329-.6896-1.5019-.80279-.569-.113179-1.15884-.05509-1.69484.16693-.536.22201-.99412.59798-1.31644 1.08037-.32231.48239-.49435 1.04952-.49435 1.62967.00087.7777.3102 1.52331.86012 2.07322.54992.54992 1.29551.85924 2.07321.86012zm0-4.4c.2901 0 .5736.08602.8148.24717.2412.16117.4292.39023.5402.65822.111.26801.1401.5629.0835.84741-.0566.2845-.1963.54584-.4014.75096-.2051.20511-.4665.3448-.751.40139s-.5794.02755-.84737-.08346c-.268-.11101-.49706-.299-.65822-.54019s-.24718-.52476-.24718-.81484c.00044-.38885.1551-.76164.43006-1.0366s.64776-.42962 1.03661-.43006zm5.9564 9.32113c-.6884-.7746-1.607-1.2677-2.8696-1.5357l-1.1365-2.6521h-4.05299l-1.19731 8.3812v2.6188h2.56667v4.4h4.40003v-4.4h3.6666v-2.2c0-2.0612-.4503-3.5699-1.3769-4.6122zm-.0897 5.3455h-3.6667v4.4h-1.4667v-4.4h-2.56663v-1.0478l1.00269-7.01883h1.81374l1.0675 2.49073.3955.066c1.1229.1871 1.8898.549 2.4141 1.1388.6773.7619 1.0065 1.9518 1.0065 3.6378z" fill="#000"/></svg>

<svg width="24" height="24" viewBox="0 0 24 24" fill="none" xmlns="http://www.w3.org/2000/svg">
<path d="M10.3 6.86667C10.8802 6.86667 11.4473 6.69463 11.9297 6.37231C12.4121 6.04999 12.788 5.59187 13.01 5.05588C13.2321 4.51988 13.2902 3.93008 13.177 3.36107C13.0638 2.79206 12.7844 2.26939 12.3742 1.85915C11.9639 1.44892 11.4413 1.16955 10.8723 1.05636C10.3033 0.943181 9.71346 1.00127 9.17746 1.22329C8.64146 1.4453 8.18334 1.82127 7.86102 2.30366C7.53871 2.78605 7.36667 3.35318 7.36667 3.93333C7.36754 4.71103 7.67687 5.45664 8.22679 6.00655C8.77671 6.55647 9.5223 6.86579 10.3 6.86667ZM10.3 2.46667C10.5901 2.46667 10.8736 2.55269 11.1148 2.71384C11.356 2.87501 11.544 3.10407 11.655 3.37206C11.766 3.64007 11.7951 3.93496 11.7385 4.21947C11.6819 4.50397 11.5422 4.76531 11.3371 4.97043C11.132 5.17554 10.8706 5.31523 10.5861 5.37182C10.3016 5.42841 10.0067 5.39937 9.73873 5.28836C9.47073 5.17735 9.24167 4.98936 9.08051 4.74817C8.91935 4.50698 8.83333 4.22341 8.83333 3.93333C8.83377 3.54448 8.98843 3.17169 9.26339 2.89673C9.53835 2.62177 9.91115 2.46711 10.3 2.46667ZM16.2564 11.7878C15.568 11.0132 14.6494 10.5201 13.3868 10.2521L12.2503 7.6H8.19731L7 15.9812V18.6H9.56667V23H13.9667V18.6H17.6333V16.4C17.6333 14.3388 17.183 12.8301 16.2564 11.7878ZM16.1667 17.1333H12.5V21.5333H11.0333V17.1333H8.46667V16.0855L9.46936 9.06667H11.2831L12.3506 11.5574L12.7461 11.6234C13.869 11.8105 14.6359 12.1724 15.1602 12.7622C15.8375 13.5241 16.1667 14.714 16.1667 16.4V17.1333Z" fill="black"/>
</svg>
